src/assets/logo-scrumlr-login.svg

<?xml version="1.0" encoding="UTF-8"?>
<svg width="138px" height="59px" viewBox="0 0 138 59" version="1.1" xmlns="http://www.w3.org/2000/svg" xmlns:xlink="http://www.w3.org/1999/xlink">
    <g id="Page-1" stroke="none" stroke-width="1" fill="none" fill-rule="evenodd">
        <g id="P0-Log-in" transform="translate(-651.000000, -176.000000)" fill="#00E7C2">
            <g id="logo" transform="translate(651.000000, 176.000000)">
                <path d="M0.141990242,58.1385129 C0.141990242,58.1385129 58.813731,39.8847049 133.406811,36.8760968 C135.167798,36.8059356 136.653138,37.8726239 136.653138,39.2033087 C136.653138,40.4352921 135.38359,41.4532243 133.753338,41.5221963 C120.175781,42.0989453 61.2961242,45.2443083 7.75455765,58.1385129 C7.75455765,58.3371048 0.141990242,59.3288752 0.141990242,58.1385129 M119.918406,9.98855306 C121.56756,7.02070862 122.827658,5.03571211 123.021398,5.10252201 C123.312795,5.2495038 122.681171,7.38445143 121.033593,10.2602467 C119.918406,12.2259425 118.270828,14.5880439 116.185366,16.8209793 C116.527167,15.9821439 118.658308,12.2036726 119.918406,9.98855306 M137.709416,20.1659286 C138.048067,20.7761257 138.098471,21.8881395 137.564504,23.2154296 C136.400489,26.0273843 133.540066,28.4087862 130.778876,28.7754983 C127.820796,29.1674498 126.220472,27.3754597 126.220472,24.8589532 C126.220472,21.8762622 128.789497,17.9448704 131.215185,14.7825349 C129.953512,15.4639959 128.740668,15.8099228 127.675885,15.9969905 C124.038927,22.5369379 121.277737,27.1913613 120.597284,30.4977092 C120.403544,31.361784 119.773495,31.8636006 118.900877,31.0930597 C118.23775,30.5823351 117.869172,29.8756348 117.746312,29.0857932 C116.542919,29.9112667 115.183588,30.5615498 113.762827,30.7501022 C111.422195,31.0589124 109.799819,30.2378929 109.215448,28.2959517 C107.534792,30.3596354 104.99727,32.0506684 102.707042,32.3550246 C99.4103103,32.791516 97.6178208,31.3038821 97.6178208,28.7873757 C97.6178208,27.9470555 97.8115608,26.8973977 98.3439523,25.6621568 C99.1189126,23.9740932 100.720812,21.2467644 101.834424,19.420627 C102.900782,17.7399867 104.064797,16.1885122 103.675742,16.2404755 C103.288262,16.2909541 102.270733,16.8922432 99.4103103,20.0219161 C95.6284409,24.1567069 93.30356,28.8927868 91.2669265,33.4967316 C90.7817888,34.4484016 90.1044861,34.67704 89.3279506,34.0326955 C88.5986689,33.4314064 88.2615927,32.8241786 88.2615927,31.6112076 C88.2615927,30.8198814 88.6474977,29.277315 89.1342106,28.0450434 C89.8115133,26.2797772 91.4118378,23.5509638 92.7191896,21.4189855 C94.0296915,19.150418 95.3874472,17.1965995 94.9495631,17.2559861 C94.562083,17.3079493 92.673511,18.5832762 89.7642596,22.0440293 C87.0503234,25.2004261 84.8183747,29.7360763 82.9298027,34.2732112 C82.5880011,35.0660221 82.0571848,35.4164029 81.2318206,34.8255064 C80.8931693,34.5924141 80.6049218,34.2821192 80.3985808,33.8990757 C79.0644519,34.9917888 77.536583,35.7816304 76.044942,35.9805754 C73.1845194,36.3591649 71.727531,35.1996419 71.535366,33.1285348 C69.8877878,35.1179853 67.7062431,36.8505889 65.2333006,37.1786997 C63.541619,37.4028841 62.5666181,36.6946991 62.1114077,35.5901087 C60.496907,37.1386138 58.389393,38.2268729 56.6520328,38.4555112 C53.5490414,38.8667633 51.8510592,37.0391413 51.8510592,34.2895425 C51.8510592,31.86657 54.4200841,27.0993121 57.0883418,23.7172462 C55.7778398,24.4031612 54.4200841,24.8648919 53.3064725,25.0578983 C49.8160008,32.9756144 44.3849782,40.032225 38.2293992,40.8473058 C33.7686521,41.439687 31.3461135,38.9662359 31.3461135,35.3288077 C31.3461135,33.698646 31.8312513,31.7685821 32.7999517,29.7776469 C35.3705517,24.6822782 39.1980996,21.5674519 42.0112685,21.1933165 C42.6413175,21.1101752 43.2225377,21.1265066 43.7076755,21.3417829 C45.1615136,21.987612 46.0325564,22.7106436 46.5680981,23.6192583 C47.2942296,25.0133584 46.5192693,26.7934712 45.5962475,28.7354124 C45.2591712,29.4777447 44.870116,30.2289849 44.7252047,30.7604949 C44.3849782,31.7849134 44.1928133,32.0417604 42.981544,31.5978457 C42.0112685,31.2593421 41.2835619,30.3774514 41.2835619,29.1214252 C41.2835619,28.4206635 41.915186,26.7979252 42.3987486,25.6636414 C42.8823113,24.6184376 43.367449,23.6237123 43.1264553,23.4693072 C42.4948311,23.0862638 39.3918396,26.3421331 37.3567813,30.5704578 C36.3880809,32.6089022 35.901368,34.5389662 35.901368,35.9390048 C35.901368,37.8957927 36.7267322,39.0909477 38.1317416,38.9974138 C42.8823113,38.5534991 48.0691899,31.0618818 50.589386,24.9970271 C49.573432,24.6674315 49.2332055,24.0112098 49.2332055,23.1278344 C49.2332055,20.6573526 52.4322794,16.8298873 54.0814328,16.565617 C55.098962,16.4305126 55.4864421,16.9857771 55.4864421,18.0101957 C55.4864421,18.9885896 55.098962,20.4391069 54.5665705,22.0469986 C55.9227511,21.5392433 57.2332531,20.7612791 58.7847488,19.4844676 C59.5108803,18.8757551 60.2874157,18.5847608 60.9174648,19.154872 C61.6908499,19.8912656 62.2752204,20.9320155 62.2752204,22.1449864 C62.2752204,22.7032203 62.0326515,23.4351599 61.4498562,24.1195903 C59.365969,26.7251766 56.9891091,30.0671565 56.2141487,32.6415648 C55.9715799,33.3720198 55.8266686,34.0905975 55.8266686,34.7898745 C55.8266686,35.9553361 56.2141487,36.6026499 56.9418554,36.553656 C58.4760248,36.4809074 60.9631433,33.5709649 62.4736859,30.4205067 C63.5652458,27.3353737 66.0019604,22.4315267 68.9663411,18.0428583 C69.5963901,17.1654215 70.4690081,17.1416669 71.0518034,17.765226 C71.5826197,18.3472145 71.7779349,19.1133014 71.7779349,19.8125784 C71.7779349,21.7233417 68.2370594,27.5981594 66.5422275,31.4137473 C65.6696096,33.3928051 65.5231232,35.1343166 66.5910563,34.9947582 C67.8511543,34.8269911 70.4217544,31.3187287 72.8946968,27.2626252 C75.7535443,22.4077721 77.0136424,19.0732155 78.757303,16.6992369 C79.437756,15.7238122 80.2127163,15.4343027 80.7955117,16.1484263 C81.2806494,16.7363535 81.5216432,17.4519618 81.5216432,18.4763803 C81.5216432,20.0605174 80.504114,22.2459436 78.8061318,25.1751868 C77.4011225,27.5491654 75.5109754,30.9698326 75.5109754,32.787062 C75.5109754,33.6273821 75.8023731,34.0549655 76.4324221,33.9703396 C77.6043133,33.8159345 79.2424408,31.8680546 80.723056,29.5935485 C81.866595,26.5039616 85.2105802,19.8882963 88.0678526,15.3259221 C88.6979016,14.3579208 89.4240331,14.3059576 89.9091709,15.0809525 C90.3454798,15.7238122 90.5880487,16.4824758 90.5880487,17.2292621 C90.5880487,17.6019129 90.540795,18.026527 90.4415623,18.5060736 C92.5270246,16.2716535 95.2409608,14.1426445 96.7940317,13.9362761 C98.3439523,13.7313924 99.3630566,15.2739589 99.3630566,17.2307468 C101.543026,15.0779832 104.112051,13.1523732 105.665122,12.9935141 C107.070131,12.8539557 107.845092,14.0105093 107.845092,15.5471372 C107.845092,17.1327589 106.827562,19.4132037 104.841333,22.6096864 C103.483577,24.7951127 102.221904,27.0132015 102.221904,28.6418785 C102.221904,29.715291 102.707042,30.396752 103.483577,30.2957949 C104.986244,30.0953651 107.359954,26.5173236 109.155594,23.4381293 C109.276878,23.2243376 109.404463,23.0743865 109.532048,22.9600673 C111.598609,15.175971 116.843767,6.30658496 121.422648,1.07314241 C122.34252,0.0650551737 123.215138,-0.328380934 124.13816,0.387227382 C125.202942,1.13252899 125.735334,2.36480057 125.735334,3.57925618 C125.735334,4.22953925 125.68808,4.74917185 125.443936,5.57464534 C123.942844,11.3188125 118.658308,17.517287 114.392876,20.8340276 C113.422601,23.3386567 112.792552,25.5181443 112.792552,27.1512753 C112.792552,28.2692277 113.082374,29.0219527 113.713998,28.9388114 C115.944372,28.6433632 118.755966,25.1484628 120.597284,21.549636 C120.773698,21.1992551 120.986339,20.9468621 121.205281,20.7761257 C122.21966,19.1741727 123.419904,17.3940599 124.668976,15.7431129 C124.087756,15.3066215 123.749104,14.746903 123.749104,14.1396752 C123.749104,11.7627272 126.852096,8.04364249 128.353188,7.84469744 C129.370717,7.71107763 129.807026,8.21140959 129.807026,9.28185273 C129.807026,10.1696821 129.469949,11.5652668 128.935983,13.1256493 C130.098423,12.6921272 131.408925,11.8681384 132.862764,10.6492288 C133.688128,9.9826144 134.17169,9.82523996 134.801739,10.3463572 C135.480617,10.9090451 136.206749,12.0255128 136.206749,13.1434652 C136.206749,13.7031838 135.965755,14.3861295 135.431788,15.0616518 C132.81551,18.2997052 130.05117,22.3469008 130.05117,25.0964996 C130.05117,26.3094705 130.43865,27.0028089 131.117528,26.9107597 C132.765106,26.6939986 134.705657,23.828596 136.206749,20.4123829 C136.594229,19.5230688 137.273107,19.3864797 137.709416,20.1659286 Z M34.6409549,21.5178641 C33.4769394,23.1628725 32.07193,25.7714281 31.3946273,26.9814297 C30.9583184,27.7846332 30.4227767,28.2285479 29.5029051,27.4179211 C28.8240273,26.8567179 28.3388895,26.1262629 28.3388895,25.0558198 C28.3388895,24.0284319 28.9689385,22.1740859 30.5692631,19.9114571 C31.7821075,18.0259331 33.0894592,15.8033903 32.4121565,15.4277701 C30.6180919,14.4078056 20.0017657,22.6625405 19.7591968,28.0548422 C19.6127104,31.1503678 26.2550023,32.9275112 28.1435743,33.9831077 C29.0665961,34.513133 29.6005627,35.2821892 29.6005627,36.1670493 C29.6005627,37.2389771 28.9689385,38.5336046 27.7088405,40.1459503 C26.4471673,41.7107868 24.0734576,43.0054142 21.1642062,43.3884577 C17.6249058,43.8576117 12.9231649,42.5704075 9.09246676,38.8379608 C8.41516406,38.1327452 8.75381541,37.575996 9.43269324,37.2538238 C9.82174852,37.1083266 10.3541399,36.9910381 10.9353602,36.9138356 C12.3419446,36.7267678 13.6981252,36.9212589 14.7156544,37.5789653 C16.6073766,38.8201449 19.8080256,40.7264542 22.6180443,40.3538033 C23.6844023,40.2127602 24.6546778,39.8519867 25.1902195,39.2685136 C25.9147759,38.4712487 25.672207,37.6665605 25.1398156,37.3161797 C21.6493439,35.1693547 14.9109696,33.543647 14.9109696,28.7897511 C14.9109696,22.4517181 22.473133,15.9058321 26.8377977,13.5556081 C28.4365471,12.6915334 29.4556514,12.4168704 30.5692631,12.2698886 C31.7332787,12.1154835 32.701979,12.3144286 33.5257682,12.8563311 C34.8850989,13.888173 35.7561417,15.3104816 36.0963682,16.5249372 C36.5799308,18.3718599 35.3686616,20.3954577 34.6409549,21.5178641 Z" id="Fill-3"></path>
            </g>
        </g>
    </g>
</svg>

<svg width="138" height="59" xmlns="http://www.w3.org/2000/svg"><path d="M.142 58.139s58.672-18.254 133.265-21.263c1.76-.07 3.246.997 3.246 2.327 0 1.232-1.27 2.25-2.9 2.32-13.577.576-72.457 3.721-125.998 16.616 0 .198-7.613 1.19-7.613 0m119.776-48.15c1.65-2.968 2.91-4.953 3.103-4.886.292.147-.34 2.281-1.987 5.157-1.116 1.966-2.763 4.328-4.849 6.561.342-.839 2.473-4.617 3.733-6.832m17.791 10.177c.34.61.39 1.722-.144 3.05-1.165 2.811-4.025 5.193-6.786 5.56-2.958.391-4.559-1.4-4.559-3.917 0-2.983 2.57-6.914 4.995-10.076a11.58 11.58 0 0 1-3.54 1.214c-3.636 6.54-6.397 11.194-7.078 14.5-.193.865-.824 1.367-1.696.596-.663-.51-1.032-1.217-1.155-2.007-1.203.825-2.562 1.476-3.983 1.664-2.34.309-3.963-.512-4.548-2.454-1.68 2.064-4.218 3.755-6.508 4.059-3.297.437-5.09-1.051-5.09-3.568 0-.84.195-1.89.727-3.125.775-1.688 2.377-4.415 3.49-6.241 1.067-1.681 2.23-3.232 1.842-3.18-.388.05-1.405.651-4.266 3.78-3.782 4.136-6.106 8.872-8.143 13.476-.485.951-1.163 1.18-1.939.536-.73-.602-1.066-1.209-1.066-2.422 0-.791.385-2.334.872-3.566.678-1.765 2.278-4.494 3.585-6.626 1.31-2.269 2.668-4.222 2.23-4.163-.387.052-2.275 1.327-5.185 4.788-2.714 3.156-4.946 7.692-6.834 12.23-.342.792-.873 1.142-1.698.552a2.642 2.642 0 0 1-.833-.927c-1.335 1.093-2.862 1.883-4.354 2.082-2.86.378-4.317-.781-4.51-2.852-1.647 1.989-3.829 3.722-6.302 4.05-1.691.224-2.666-.484-3.122-1.589-1.614 1.549-3.722 2.637-5.459 2.866-3.103.41-4.8-1.417-4.8-4.166 0-2.423 2.568-7.19 5.236-10.573-1.31.686-2.668 1.148-3.782 1.34-3.49 7.919-8.921 14.975-15.077 15.79-4.46.593-6.883-1.88-6.883-5.518 0-1.63.485-3.56 1.454-5.551 2.57-5.096 6.398-8.21 9.211-8.585.63-.083 1.212-.066 1.697.149 1.454.646 2.325 1.369 2.86 2.277.726 1.394-.049 3.174-.972 5.116-.337.743-.726 1.494-.87 2.025-.341 1.025-.533 1.282-1.744.838-.97-.339-1.698-1.22-1.698-2.477 0-.7.631-2.323 1.115-3.457.483-1.046.968-2.04.727-2.195-.631-.383-3.734 2.873-5.77 7.101-.968 2.039-1.455 3.969-1.455 5.369 0 1.957.826 3.152 2.23 3.058 4.751-.444 9.938-7.935 12.458-14-1.016-.33-1.356-.986-1.356-1.87 0-2.47 3.2-6.297 4.848-6.561 1.018-.135 1.405.42 1.405 1.444 0 .979-.387 2.43-.92 4.037 1.357-.508 2.667-1.286 4.219-2.563.726-.608 1.502-.9 2.132-.33.774.737 1.358 1.778 1.358 2.991 0 .558-.242 1.29-.825 1.975-2.084 2.605-4.46 5.947-5.236 8.522-.242.73-.387 1.449-.387 2.148 0 1.165.387 1.813 1.115 1.764 1.534-.073 4.021-2.983 5.532-6.133 1.091-3.086 3.528-7.99 6.492-12.378.63-.878 1.503-.901 2.086-.278.53.582.726 1.348.726 2.048 0 1.91-3.54 7.785-5.236 11.6-.872 1.98-1.019 3.721.05 3.582 1.26-.168 3.83-3.676 6.303-7.732 2.859-4.855 4.119-8.19 5.862-10.564.68-.975 1.456-1.265 2.039-.55.485.587.726 1.303.726 2.327 0 1.585-1.018 3.77-2.716 6.7-1.405 2.373-3.295 5.794-3.295 7.611 0 .84.291 1.268.921 1.183 1.172-.154 2.81-2.102 4.291-4.376 1.144-3.09 4.488-9.706 7.345-14.268.63-.968 1.356-1.02 1.841-.245.436.643.679 1.401.679 2.148 0 .373-.047.798-.146 1.277 2.085-2.234 4.799-4.363 6.352-4.57 1.55-.205 2.57 1.338 2.57 3.295 2.179-2.153 4.748-4.079 6.301-4.237 1.405-.14 2.18 1.017 2.18 2.553 0 1.586-1.017 3.866-3.004 7.063-1.357 2.185-2.62 4.403-2.62 6.032 0 1.073.486 1.755 1.263 1.654 1.502-.2 3.876-3.779 5.672-6.858.12-.214.248-.364.376-.478 2.067-7.784 7.312-16.653 11.89-21.887.92-1.008 1.793-1.401 2.716-.686 1.065.746 1.597 1.978 1.597 3.192 0 .65-.047 1.17-.291 1.996-1.501 5.744-6.786 11.942-11.051 15.259-.97 2.505-1.6 4.684-1.6 6.317 0 1.118.29 1.871.921 1.788 2.23-.296 5.042-3.79 6.883-7.39.177-.35.39-.602.608-.773a75.154 75.154 0 0 1 3.464-5.033c-.581-.436-.92-.996-.92-1.603 0-2.377 3.103-6.096 4.604-6.295 1.018-.134 1.454.366 1.454 1.437 0 .888-.337 2.283-.871 3.844 1.162-.434 2.473-1.258 3.927-2.477.825-.666 1.309-.824 1.939-.303.679.563 1.405 1.68 1.405 2.797 0 .56-.241 1.243-.775 1.919-2.616 3.238-5.38 7.285-5.38 10.034 0 1.213.387 1.907 1.066 1.815 1.647-.217 3.588-3.082 5.089-6.499.387-.889 1.066-1.026 1.502-.246zM34.641 21.518c-1.164 1.645-2.57 4.253-3.246 5.463-.437.804-.972 1.248-1.892.437-.679-.561-1.164-1.292-1.164-2.362 0-1.028.63-2.882 2.23-5.145 1.213-1.885 2.52-4.108 1.843-4.483-1.794-1.02-12.41 7.235-12.653 12.627-.146 3.095 6.496 4.873 8.385 5.928.923.53 1.457 1.3 1.457 2.184 0 1.072-.632 2.367-1.892 3.979-1.262 1.565-3.636 2.86-6.545 3.242-3.54.47-8.24-.818-12.072-4.55-.677-.705-.338-1.262.34-1.584.39-.146.922-.263 1.503-.34 1.407-.187 2.763.007 3.78.665 1.892 1.241 5.093 3.147 7.903 2.775 1.066-.141 2.037-.502 2.572-1.085.725-.798.482-1.602-.05-1.953-3.49-2.147-10.229-3.772-10.229-8.526 0-6.338 7.562-12.884 11.927-15.234 1.599-.864 2.618-1.14 3.731-1.286 1.164-.155 2.133.044 2.957.586 1.36 1.032 2.23 2.454 2.57 3.669.484 1.847-.727 3.87-1.455 4.993z" fill="#00E7C2" fill-rule="evenodd"/></svg>
